X:532
T:Trip to St.John's Court. (p)1709.PLFD1.532, A
M:4/4
L:1/8
Q:1/2=80
S:Playford, Dancing Master,14th.Ed.,1709.
O:English
Z:Chris Partington.
K:Bb
g2d2b2a2|g>a^f>ag2d2|e2c2f2e>d|c>de>fd2B2|
f2d2g2f2|=e>^fd>ec2a2|bagf =e^fga|^f4d4:|
|:b2f2a2d2|g>f=e>gf2B2|e2c2d2g2|=e>fg>a^f2d2|
g4a4|b2ag fedc|BABcd2g2|g3^fg4:|
